X:67
T:Go to the Devil and Shake Yourself. LIT.067
M:6/8
Q:3/8=120
L:1/8
B:Wm. Litten MS, 1802
Z:Village Music Project 2017 Anne Wride
K:D
Add dcB | ABA AFA | Add d3 | fdB B2A |
Add dcB | ABA AFA | dfd ege | fdd d3 :|
|: afd dcd | BGG G3 | bge ede | cAA A3 |
Add dcB | ABA AFA | dfd ege | fdd d3 :|

